!!!OTL: 267. Die schwarze Koechin. / Schlussworten.
!!!ARE: Europa, Mitteleuropa, Deutschland, Dresden
!!!SCT: K2267A
!!!YEM: Copyright 1995, estate of Helmut Schaffrath.
**kern	**text
*clefG2	*
*M2/4	*
*k[f#c#]	*
*D:	*
=1	=1
!LO:TX:a:t=Alle.	!
{8a	Jſt
8a	die
8b	ſchwar-
8b	-ʒe
=2	=2
8a	Kö-
8g	-chin
4f#}	da?
=3	=3
{4a	Ja,
4b	ja,
=4	=4
4a	ja!
8r}	.
{8d	Da
=5	=5
8a	ſteht
8g	ſie
8f#	ja,
8d	da
=6	=6
8a	ſteht
8g	ſie
8f#}	ja,
{8d	da
=7	=7
8a	ſteht
8a	die
8b	ſchwar-
8b	-ʒe
=8	=8
8a	Kö-
8g	-chin
4f#}	da!
=9	=9
{8a	Ʒiſch,
8r	.
8b	ʒiſch,
8r	.
=10	=10
8a	ʒiſch!
8r	.
4r}	.
==	==
!!!AGN: Kinder - Lied, Reigen, Tanz - Spiel
!!!ONB: ESAC (Essen Associative Code) Database: KINDER
!!!AMT: simple duple
!!!AIN: vox
!!!EED: Helmut Schaffrath
!!!EEV: 1.0
!!!GTL: Zweites Buch. Kinderspiel: 2. Reigen und Tanzspiele. / F. Lange Reihe.
!!!URL-scan: https://archive.org/details/DeutschesKinderliedUndKinderspiel/page/507/mode/1up
!!!ENC: Anna Maria Matuszewska
!!!EEV: 2024/04/09
*-	*-
